svg/white/atm.svg

<svg xmlns="http://www.w3.org/2000/svg" width="32" height="32" viewBox="0 0 32 32">
  <path fill="#FFF" fill-rule="evenodd" d="M20.167335,18.7018851 C22.1316359,17.5084992 22.8456477,14.9742008 21.7529157,12.9190708 L18.5298768,6.85741643 C17.3971272,4.72702416 14.751828,3.91827504 12.6214357,5.0510247 L12.4974168,5.11696674 C10.3670245,6.2497164 9.55827538,8.8950156 10.691025,11.0254079 L11.6466056,12.8225935 C11.7185416,12.7788897 11.7921544,12.7369843 11.8674167,12.6969667 L11.9914356,12.6310246 C14.1218279,11.498275 16.7671271,12.3070241 17.8998767,14.4374164 L20.167335,18.7018851 Z M16,32 C7.163444,32 -1.77635684e-15,24.836556 -1.77635684e-15,16 C-1.77635684e-15,7.163444 7.163444,-1.77635684e-15 16,-1.77635684e-15 C24.836556,-1.77635684e-15 32,7.163444 32,16 C32,24.836556 24.836556,32 16,32 Z M20.167335,18.7018851 C20.095399,18.7455889 20.0217862,18.7874943 19.9465239,18.827512 L19.822505,18.893454 C17.6921127,20.0262037 15.0468135,19.2174545 13.9140639,17.0870623 L11.6466056,12.8225935 C9.68230468,14.0159794 8.96829293,16.5502778 10.0610249,18.6054078 L13.2827321,24.6645577 C14.4154818,26.79495 17.060781,27.6036991 19.1911732,26.4709494 L19.3151922,26.4050074 C21.4455844,25.2722577 22.2543336,22.6269585 21.1215839,20.4965663 L20.167335,18.7018851 Z"/>
</svg>

<svg xmlns="http://www.w3.org/2000/svg" width="32" height="32"><path fill="#FFF" fill-rule="evenodd" d="M20.167 18.702a4.369 4.369 0 0 0 1.586-5.783L18.53 6.857a4.369 4.369 0 0 0-5.909-1.806l-.124.066a4.369 4.369 0 0 0-1.806 5.908l.956 1.798c.072-.044.145-.086.22-.126l.124-.066a4.369 4.369 0 0 1 5.909 1.806l2.267 4.265zM16 32C7.163 32 0 24.837 0 16S7.163 0 16 0s16 7.163 16 16-7.163 16-16 16zm4.167-13.298a4.438 4.438 0 0 1-.22.126l-.124.065a4.369 4.369 0 0 1-5.909-1.806l-2.267-4.264a4.369 4.369 0 0 0-1.586 5.782l3.222 6.06a4.369 4.369 0 0 0 5.908 1.806l.124-.066a4.369 4.369 0 0 0 1.807-5.908l-.955-1.795z"/></svg>
